suite-common/icons/assets/icons/touchId.svg

<svg xmlns="http://www.w3.org/2000/svg" fill="none" viewBox="0 0 64 64">
  <path fill="#0F6148" fill-rule="evenodd" d="M29.904 6.085c-4.362.249-8.668 1.565-12.053 3.686-4.666 2.924-8.176 7.201-10.434 12.715-.62 1.513-.691 1.985-.393 2.602.378.78 1.183 1.047 1.994.663.449-.213.587-.427 1.072-1.66 1.942-4.943 4.838-8.622 8.905-11.317 3.898-2.583 8.015-3.814 12.752-3.814 3.72 0 6.261.541 9.325 1.985 1.488.702 1.936.801 2.448.545.333-.166.64-.761.64-1.243 0-.553-.743-1.198-2.297-1.994-2.718-1.391-4.918-1.948-8.584-2.171-.967-.059-1.807-.1-1.866-.092-.058.009-.737.051-1.509.095m.176 5.977c-5.82.392-11.513 3.79-14.857 8.867a19.66 19.66 0 0 0-3.276 10.944c0 2.019.096 2.697.759 5.377.595 2.402.756 3.917.531 4.997-.177.847-.691 1.872-1.281 2.553-.646.745-.756.958-.756 1.46.002 1.312 1.446 1.857 2.479.934 1.041-.929 1.775-2.192 2.161-3.719.545-2.155.466-3.552-.388-6.861-.526-2.039-.545-2.167-.599-3.951-.059-1.953.043-3.117.412-4.716.952-4.128 3.707-8.017 7.348-10.374 2.856-1.849 5.587-2.651 9.014-2.648 4.105.004 7.183 1.018 10.24 3.374 3.495 2.695 6.127 7.299 7.19 12.581.73 3.624.838 8.723.267 12.64-.201 1.381-.787 3.848-1.156 4.866-.343.95-.352 1.494-.031 1.97.325.484.67.649 1.235.593q.843-.083 1.21-.823c.283-.569.917-2.872 1.26-4.579.574-2.854.676-4.01.679-7.68.003-2.888-.03-3.607-.234-5.117-.742-5.487-2.601-10.124-5.5-13.721-3.173-3.936-8.277-6.626-13.134-6.922-1.976-.121-2.376-.126-3.573-.045m16.587.097c-.36.236-.694.785-.694 1.139 0 .47.239.831 1.248 1.89 2.223 2.332 3.925 4.751 5.261 7.479 1.301 2.654 2.015 5.072 2.457 8.32.34 2.497.408 2.777.782 3.203.647.738 1.706.574 2.105-.327.212-.48.213-.519.044-1.843-.811-6.332-2.648-11.4-5.563-15.347-1.297-1.757-3.407-4.002-4.254-4.527a1.32 1.32 0 0 0-1.386.013M30.22 18.037c-2.196.196-4.473 1.035-6.429 2.37-1.758 1.201-3.708 3.489-4.627 5.432-.504 1.067-.999 2.663-1.19 3.841-.204 1.257-.205 3.693-.003 4.933.264 1.621 1.168 4.55 1.615 5.232.37.563 1.211.745 1.913.412.374-.178.794-.865.794-1.299 0-.125-.263-.968-.585-1.873-.887-2.494-.95-2.822-.954-4.978-.003-1.589.032-2.008.236-2.814.806-3.193 2.934-5.854 5.837-7.298 1.737-.865 3.211-1.148 5.533-1.06 1.664.063 2.252.203 3.928.941 1.068.47 1.379.505 1.861.212.656-.4.752-1.556.18-2.168-.712-.761-3.22-1.654-5.292-1.885-1.132-.127-1.381-.126-2.817.002m10.989 5.013c-.428.124-.86.632-.951 1.12-.059.311 0 .514.327 1.144 1.552 2.984 1.946 3.941 2.443 5.939.54 2.175.718 3.691.781 6.676.062 2.944-.027 4.389-.401 6.498-.641 3.611-1.686 6.436-3.229 8.729-.388.577-.736 1.209-.773 1.405-.2 1.065.711 1.901 1.767 1.622.514-.136.59-.211 1.31-1.303 1.939-2.94 3.425-7.382 3.978-11.893.357-2.915.307-6.98-.123-9.861-.453-3.044-1.385-5.877-2.78-8.45-.491-.906-1.171-1.636-1.523-1.636-.112 0-.268-.02-.346-.044s-.294.001-.48.054M29.76 24.165c-2.969.633-5.054 2.612-5.772 5.479-.352 1.402-.255 3.107.324 5.716.656 2.954.758 3.581.828 5.13.148 3.231-.668 6.441-2.28 8.978-.548.862-1.528 2.023-2.173 2.574-.729.623-.953 1.01-.953 1.651-.001.461.046.565.413.933.345.345.487.414.847.414.71 0 .977-.172 2.211-1.421 2.107-2.131 3.479-4.626 4.252-7.733.468-1.881.541-2.539.54-4.873-.001-2.498-.056-2.884-.85-5.979-.748-2.921-.732-4.318.066-5.816 1.407-2.639 5.822-3.159 7.832-.923 1.736 1.93 2.625 5.188 2.788 10.212.118 3.655-.272 6.404-1.378 9.706-.869 2.593-2.197 4.841-3.948 6.684-1.019 1.072-1.04 1.105-1.04 1.605.001.959.724 1.633 1.581 1.472.741-.139 2.381-1.994 3.616-4.089 1.751-2.971 3.011-6.78 3.623-10.952.272-1.857.269-7.047-.005-8.853-.596-3.923-1.563-6.259-3.321-8.023-1.452-1.458-3.065-2.067-5.424-2.049-.596.005-1.396.075-1.777.157m-22.769 4.58c-.493.177-.767.492-.882 1.015-.152.69-.075 4.352.119 5.653.252 1.694.688 3.601.931 4.078.383.75 1.476.982 2.111.448.566-.476.614-.892.289-2.464-.448-2.161-.595-3.557-.597-5.688-.002-1.665-.031-2.031-.189-2.339-.353-.694-1.047-.967-1.782-.703m24.162 2.703c-.392.211-.753.771-.753 1.169 0 .136.141.791.313 1.455.697 2.682.909 5.504.598 7.963-.164 1.299-.166 1.488-.022 1.832.404.967 1.79 1.073 2.437.186.302-.412.513-1.702.585-3.573.095-2.477-.235-5.295-.868-7.405-.315-1.051-.478-1.33-.942-1.613-.427-.26-.879-.265-1.348-.014m-11.26 11.948c-.349.214-.393.289-.943 1.598-.707 1.683-1.402 2.581-3.133 4.05-.754.639-.954 1.091-.775 1.741.216.783 1.104 1.16 1.921.814 1.941-.821 5.012-5.113 5.01-7.002-.001-1.059-1.19-1.744-2.08-1.201m10.709 4.101c-.386.259-.467.396-1.214 2.036-.692 1.522-1.538 2.729-2.868 4.094-1.15 1.182-1.17 1.21-1.211 1.76-.051.695.224 1.191.791 1.428.783.327 1.561-.076 2.869-1.487 1.394-1.505 2.577-3.36 3.286-5.155.601-1.519.487-2.408-.351-2.743-.592-.237-.871-.223-1.302.067"/>
</svg>

<svg xmlns="http://www.w3.org/2000/svg" fill="none" viewBox="0 0 64 64"><path d="M29.904 6.085 C 25.542 6.334,21.236 7.650,17.851 9.771 C 13.185 12.695,9.675 16.972,7.417 22.486 C 6.797 23.999,6.726 24.471,7.024 25.088 C 7.402 25.868,8.207 26.135,9.018 25.751 C 9.467 25.538,9.605 25.324,10.090 24.091 C 12.032 19.148,14.928 15.469,18.995 12.774 C 22.893 10.191,27.010 8.960,31.747 8.960 C 35.467 8.960,38.008 9.501,41.072 10.945 C 42.560 11.647,43.008 11.746,43.520 11.490 C 43.853 11.324,44.160 10.729,44.160 10.247 C 44.160 9.694,43.417 9.049,41.863 8.253 C 39.145 6.862,36.945 6.305,33.279 6.082 C 32.312 6.023,31.472 5.982,31.413 5.990 C 31.355 5.999,30.676 6.041,29.904 6.085 M30.080 12.062 C 24.260 12.454,18.567 15.852,15.223 20.929 C 13.059 24.216,11.947 27.930,11.947 31.873 C 11.947 33.892,12.043 34.570,12.706 37.250 C 13.301 39.652,13.462 41.167,13.237 42.247 C 13.060 43.094,12.546 44.119,11.956 44.800 C 11.310 45.545,11.200 45.758,11.200 46.260 C 11.202 47.572,12.646 48.117,13.679 47.194 C 14.720 46.265,15.454 45.002,15.840 43.475 C 16.385 41.320,16.306 39.923,15.452 36.614 C 14.926 34.575,14.907 34.447,14.853 32.663 C 14.794 30.710,14.896 29.546,15.265 27.947 C 16.217 23.819,18.972 19.930,22.613 17.573 C 25.469 15.724,28.200 14.922,31.627 14.925 C 35.732 14.929,38.810 15.943,41.867 18.299 C 45.362 20.994,47.994 25.598,49.057 30.880 C 49.787 34.504,49.895 39.603,49.324 43.520 C 49.123 44.901,48.537 47.368,48.168 48.386 C 47.825 49.336,47.816 49.880,48.137 50.356 C 48.462 50.840,48.807 51.005,49.372 50.949 C 49.934 50.894,50.337 50.619,50.582 50.126 C 50.865 49.557,51.499 47.254,51.842 45.547 C 52.416 42.693,52.518 41.537,52.521 37.867 C 52.524 34.979,52.491 34.260,52.287 32.750 C 51.545 27.263,49.686 22.626,46.787 19.029 C 43.614 15.093,38.510 12.403,33.653 12.107 C 31.677 11.986,31.277 11.981,30.080 12.062 M46.667 12.159 C 46.307 12.395,45.973 12.944,45.973 13.298 C 45.973 13.768,46.212 14.129,47.221 15.188 C 49.444 17.520,51.146 19.939,52.482 22.667 C 53.783 25.321,54.497 27.739,54.939 30.987 C 55.279 33.484,55.347 33.764,55.721 34.190 C 56.368 34.928,57.427 34.764,57.826 33.863 C 58.038 33.383,58.039 33.344,57.870 32.020 C 57.059 25.688,55.222 20.620,52.307 16.673 C 51.010 14.916,48.900 12.671,48.053 12.146 C 47.638 11.889,47.069 11.894,46.667 12.159 M30.220 18.037 C 28.024 18.233,25.747 19.072,23.791 20.407 C 22.033 21.608,20.083 23.896,19.164 25.839 C 18.660 26.906,18.165 28.502,17.974 29.680 C 17.770 30.937,17.769 33.373,17.971 34.613 C 18.235 36.234,19.139 39.163,19.586 39.845 C 19.956 40.408,20.797 40.590,21.499 40.257 C 21.873 40.079,22.293 39.392,22.293 38.958 C 22.293 38.833,22.030 37.990,21.708 37.085 C 20.821 34.591,20.758 34.263,20.754 32.107 C 20.751 30.518,20.786 30.099,20.990 29.293 C 21.796 26.100,23.924 23.439,26.827 21.995 C 28.564 21.130,30.038 20.847,32.360 20.935 C 34.024 20.998,34.612 21.138,36.288 21.876 C 37.356 22.346,37.667 22.381,38.149 22.088 C 38.805 21.688,38.901 20.532,38.329 19.920 C 37.617 19.159,35.109 18.266,33.037 18.035 C 31.905 17.908,31.656 17.909,30.220 18.037 M41.209 23.050 C 40.781 23.174,40.349 23.682,40.258 24.170 C 40.199 24.481,40.258 24.684,40.585 25.314 C 42.137 28.298,42.531 29.255,43.028 31.253 C 43.568 33.428,43.746 34.944,43.809 37.929 C 43.871 40.873,43.782 42.318,43.408 44.427 C 42.767 48.038,41.722 50.863,40.179 53.156 C 39.791 53.733,39.443 54.365,39.406 54.561 C 39.206 55.626,40.117 56.462,41.173 56.183 C 41.687 56.047,41.763 55.972,42.483 54.880 C 44.422 51.940,45.908 47.498,46.461 42.987 C 46.818 40.072,46.768 36.007,46.338 33.126 C 45.885 30.082,44.953 27.249,43.558 24.676 C 43.067 23.770,42.387 23.040,42.035 23.040 C 41.923 23.040,41.767 23.020,41.689 22.996 C 41.611 22.972,41.395 22.997,41.209 23.050 M29.760 24.165 C 26.791 24.798,24.706 26.777,23.988 29.644 C 23.636 31.046,23.733 32.751,24.312 35.360 C 24.968 38.314,25.070 38.941,25.140 40.490 C 25.288 43.721,24.472 46.931,22.860 49.468 C 22.312 50.330,21.332 51.491,20.687 52.042 C 19.958 52.665,19.734 53.052,19.734 53.693 C 19.733 54.154,19.780 54.258,20.147 54.626 C 20.492 54.971,20.634 55.040,20.994 55.040 C 21.704 55.040,21.971 54.868,23.205 53.619 C 25.312 51.488,26.684 48.993,27.457 45.886 C 27.925 44.005,27.998 43.347,27.997 41.013 C 27.996 38.515,27.941 38.129,27.147 35.034 C 26.399 32.113,26.415 30.716,27.213 29.218 C 28.620 26.579,33.035 26.059,35.045 28.295 C 36.781 30.225,37.670 33.483,37.833 38.507 C 37.951 42.162,37.561 44.911,36.455 48.213 C 35.586 50.806,34.258 53.054,32.507 54.897 C 31.488 55.969,31.467 56.002,31.467 56.502 C 31.468 57.461,32.191 58.135,33.048 57.974 C 33.789 57.835,35.429 55.980,36.664 53.885 C 38.415 50.914,39.675 47.105,40.287 42.933 C 40.559 41.076,40.556 35.886,40.282 34.080 C 39.686 30.157,38.719 27.821,36.961 26.057 C 35.509 24.599,33.896 23.990,31.537 24.008 C 30.941 24.013,30.141 24.083,29.760 24.165 M6.991 28.745 C 6.498 28.922,6.224 29.237,6.109 29.760 C 5.957 30.450,6.034 34.112,6.228 35.413 C 6.480 37.107,6.916 39.014,7.159 39.491 C 7.542 40.241,8.635 40.473,9.270 39.939 C 9.836 39.463,9.884 39.047,9.559 37.475 C 9.111 35.314,8.964 33.918,8.962 31.787 C 8.960 30.122,8.931 29.756,8.773 29.448 C 8.420 28.754,7.726 28.481,6.991 28.745 M31.153 31.448 C 30.761 31.659,30.400 32.219,30.400 32.617 C 30.400 32.753,30.541 33.408,30.713 34.072 C 31.410 36.754,31.622 39.576,31.311 42.035 C 31.147 43.334,31.145 43.523,31.289 43.867 C 31.693 44.834,33.079 44.940,33.726 44.053 C 34.028 43.641,34.239 42.351,34.311 40.480 C 34.406 38.003,34.076 35.185,33.443 33.075 C 33.128 32.024,32.965 31.745,32.501 31.462 C 32.074 31.202,31.622 31.197,31.153 31.448 M19.893 43.396 C 19.544 43.610,19.500 43.685,18.950 44.994 C 18.243 46.677,17.548 47.575,15.817 49.044 C 15.063 49.683,14.863 50.135,15.042 50.785 C 15.258 51.568,16.146 51.945,16.963 51.599 C 18.904 50.778,21.975 46.486,21.973 44.597 C 21.972 43.538,20.783 42.853,19.893 43.396 M30.602 47.497 C 30.216 47.756,30.135 47.893,29.388 49.533 C 28.696 51.055,27.850 52.262,26.520 53.627 C 25.370 54.809,25.350 54.837,25.309 55.387 C 25.258 56.082,25.533 56.578,26.100 56.815 C 26.883 57.142,27.661 56.739,28.969 55.328 C 30.363 53.823,31.546 51.968,32.255 50.173 C 32.856 48.654,32.742 47.765,31.904 47.430 C 31.312 47.193,31.033 47.207,30.602 47.497 " fill="#0F6148" stroke="none" fill-rule="evenodd"></path></svg>
